public/assets/linkedin.svg

<?xml version="1.0" encoding="utf-8"?><!-- Uploaded to: SVG Repo, www.svgrepo.com, Generator: SVG Repo Mixer Tools -->
<svg width="800px" height="800px" viewBox="0 0 24 24" id="meteor-icon-kit__regular-linkedin" fill="none" xmlns="http://www.w3.org/2000/svg"><path fill-rule="evenodd" clip-rule="evenodd" d="M5.37214 24H0.396429V7.97674H5.37214V24ZM2.88161 5.79102C1.29054 5.79102 0 4.47317 0 2.8821C2.37147e-08 1.29063 1.29014 0.000488281 2.88161 0.000488281C4.47307 0.000488281 5.76321 1.29063 5.76321 2.8821C5.76321 4.47317 4.47214 5.79102 2.88161 5.79102ZM23.9946 24H19.0296V16.2C19.0296 14.341 18.9921 11.9571 16.4427 11.9571C13.8557 11.9571 13.4593 13.9767 13.4593 16.066V24H8.48893V7.97674H13.2611V10.1625H13.3307C13.995 8.90352 15.6177 7.57495 18.0386 7.57495C23.0743 7.57495 24 10.891 24 15.1982V24H23.9946Z" fill="#ced9e4"/></svg>

<svg width="800" height="800" viewBox="0 0 24 24" fill="none" xmlns="http://www.w3.org/2000/svg"><path fill-rule="evenodd" clip-rule="evenodd" d="M5.372 24H.396V7.977h4.976V24zM2.882 5.791C1.29 5.791 0 4.473 0 2.882a2.882 2.882 0 115.763 0c0 1.591-1.29 2.909-2.881 2.909zM23.995 24H19.03v-7.8c0-1.859-.038-4.243-2.587-4.243-2.587 0-2.984 2.02-2.984 4.109V24H8.49V7.977h4.772v2.185h.07c.664-1.258 2.287-2.587 4.708-2.587 5.035 0 5.961 3.316 5.961 7.623V24h-.005z" fill="#ced9e4"/></svg>
